packages/core/src/svgs/tokens/branded/ARC.svg

<svg width="24" height="24" viewBox="0 0 24 24" fill="none" xmlns="http://www.w3.org/2000/svg">
<path d="M13.2743 4.38272C13.1902 4.26412 13.0788 4.16744 12.9496 4.10081C12.8203 4.0342 12.677 3.99957 12.5315 3.99986C12.24 3.99986 11.96 4.13701 11.7887 4.3713L4.28564 14.8573C5.34742 14.0958 6.51128 13.4879 7.74285 13.0515L12.5143 6.38276L17.0688 12.9658C18.2173 13.3486 19.2973 13.88 20.2859 14.5258L13.2743 4.38272Z" fill="white"/>
<path d="M2.57144 19.5601L2 20.0001C2.10858 19.8629 2.30287 19.7144 2.57144 19.5601C4.88005 17.8629 9.53728 15.1029 13.5602 14.8915C19.046 14.6058 22.5146 16.0286 21.9375 17.7316C21.3603 19.4344 17.3145 17.1601 13.5602 17.1601C10.263 17.1601 4.51434 18.4744 2.57144 19.5601Z" fill="url(#paint0_linear_364_10252)" fill-opacity="0.6"/>
<path d="M14.2344 16.5373C9.48013 16.5373 4.29719 18.8459 2.30287 20.0001L2 19.5429C4.03433 18.3658 9.32585 16.0001 14.2344 16.0001C18.5945 16.0001 20.6518 16.8173 21.269 17.1086C21.4118 17.1716 21.469 17.3373 21.4003 17.4686C21.362 17.5333 21.3007 17.581 21.2286 17.6022C21.1564 17.6234 21.079 17.6166 21.0118 17.5829C20.4803 17.3373 18.5089 16.5373 14.2344 16.5373Z" fill="url(#paint1_linear_364_10252)" fill-opacity="0.6"/>
<defs>
<linearGradient id="paint0_linear_364_10252" x1="21.3603" y1="12.0571" x2="2.15064" y2="12.6293" gradientUnits="userSpaceOnUse">
<stop stop-color="#197EAF"/>
<stop offset="1" stop-color="#041C28" stop-opacity="0.1"/>
</linearGradient>
<linearGradient id="paint1_linear_364_10252" x1="20.5317" y1="18.0344" x2="2.57716" y2="20.3487" gradientUnits="userSpaceOnUse">
<stop stop-color="white"/>
<stop offset="0.54" stop-color="#AEAEAE"/>
<stop offset="1" stop-color="#1E1E1E"/>
</linearGradient>
</defs>
</svg>

<svg xmlns="http://www.w3.org/2000/svg" width="24" height="24" fill="none" viewBox="0 0 24 24">
    <path fill="#fff" d="M13.274 4.383A.91.91 0 0 0 12.532 4a.92.92 0 0 0-.743.371L4.286 14.857a14 14 0 0 1 3.457-1.805l4.771-6.67 4.555 6.584a14 14 0 0 1 3.217 1.56z"/>
    <path fill="url(#ARC__a)" fill-opacity=".6" d="M2.571 19.56 2 20c.109-.137.303-.286.571-.44 2.309-1.697 6.966-4.457 10.99-4.668 5.485-.286 8.954 1.137 8.377 2.84-.578 1.702-4.623-.572-8.378-.572-3.297 0-9.046 1.314-10.989 2.4"/>
    <path fill="url(#ARC__b)" fill-opacity=".6" d="M14.234 16.537c-4.754 0-9.937 2.309-11.931 3.463L2 19.543C4.034 18.366 9.326 16 14.234 16c4.36 0 6.418.817 7.035 1.109.143.063.2.228.131.36a.297.297 0 0 1-.388.114c-.532-.246-2.503-1.046-6.778-1.046"/>
    <defs>
        <linearGradient id="ARC__a" x1="21.36" x2="2.151" y1="12.057" y2="12.629" gradientUnits="userSpaceOnUse">
            <stop stop-color="#197EAF"/>
            <stop offset="1" stop-color="#041C28" stop-opacity=".1"/>
        </linearGradient>
        <linearGradient id="ARC__b" x1="20.532" x2="2.577" y1="18.034" y2="20.349" gradientUnits="userSpaceOnUse">
            <stop stop-color="#fff"/>
            <stop offset=".54" stop-color="#AEAEAE"/>
            <stop offset="1" stop-color="#1E1E1E"/>
        </linearGradient>
    </defs>
</svg>
